X: 17826
T: Hopak
R: polka
M: 2/4
K: Dmajor
|:a2 e2|d/c/B cA|EA ce|d/c/B cA|
aa ee|d/c/B cA|EA ce|d/c/BA2:|
|:Ad f2|eg f2|fa2b|a/g/f/e/ fd|
Ad f2|eg f2|fa2b|a/g/f/e/ d2:|

